;FLAVOR:Marlin
;TIME:10068
;Filament used: 10.7774m
;Layer height: 0.28
;MINX:12.944
;MINY:60.706
;MINZ:0.28
;MAXX:207.056
;MAXY:159.294
;MAXZ:3.08
;Generated with Cura_SteamEngine 5.2.1
M82 ;absolute extrusion mode
; Ender 3 Custom Start G-code
G92 E0 ; Reset Extruder
G28 ; Home all axes
M104 S175 ; Start heating up the nozzle most of the way
M190 S60 ; Start heating the bed, wait until target temperature reached
M109 S200 ; Finish heating the nozzle
G1 Z2.0 F3000 ; Move Z Axis up little to prevent scratching of Heat Bed
G1 X0.1 Y20 Z0.3 F5000.0 ; Move to start position
G1 X0.1 Y200.0 Z0.3 F1500.0 E15 ; Draw the first line
G1 X0.4 Y200.0 Z0.3 F5000.0 ; Move to side a little
G1 X0.4 Y20 Z0.3 F1500.0 E30 ; Draw the second line
G92 E0 ; Reset Extruder
G1 Z2.0 F3000 ; Move Z Axis up little to prevent scratching of Heat Bed
G1 X5 Y20 Z0.3 F5000.0 ; Move over to prevent blob squish
G92 E0
G92 E0
G1 F1500 E-6.5
;LAYER_COUNT:11
;LAYER:0
M107
G0 F6000 X23.522 Y64.498 Z0.28
;TYPE:SKIRT
G1 F1500 E0
G1 F1200 X24.42 Y64.229 E0.04365
G1 X25.339 Y64.037 E0.08737
G1 X26.654 Y63.9 E0.14893
G1 X29.288 Y63.786 E0.2717
G1 X31.826 Y63.603 E0.39018
G1 X34.302 Y63.355 E0.50605
G1 X36.822 Y63.031 E0.62436
G1 X39.294 Y62.641 E0.74089
G1 X41.763 Y62.179 E0.85785
G1 X44.213 Y61.649 E0.97457
G1 X46.736 Y61.031 E1.09553
G1 X47.656 Y60.847 E1.13922
G1 X49.045 Y60.719 E1.20417
G1 X49.674 Y60.706 E1.23346
G1 X74.037 Y60.706 E2.36791
G1 X74.897 Y60.717 E2.40795
G1 X75.834 Y60.77 E2.45165
G1 X76.762 Y60.903 E2.49531
G1 X77.363 Y61.033 E2.52394
G1 X78.398 Y61.287 E2.57356
G1 X80.912 Y61.866 E2.69369
G1 X83.396 Y62.365 E2.81167
G1 X85.87 Y62.789 E2.92855
G1 X88.369 Y63.145 E3.04608
G1 X90.849 Y63.427 E3.16231
G1 X93.379 Y63.644 E3.28055
G1 X95.882 Y63.785 E3.39728
G1 X98.377 Y63.857 E3.51351
G1 X100.902 Y63.857 E3.63108
G1 X103.427 Y63.786 E3.7487
G1 X105.943 Y63.645 E3.86604
G1 X108.455 Y63.432 E3.98343
G1 X110.942 Y63.149 E4.09999
G1 X113.475 Y62.789 E4.21912
G1 X115.924 Y62.37 E4.33481
G1 X118.39 Y61.876 E4.45192
G1 X120.618 Y61.373 E4.55828
G1 X121.541 Y61.206 E4.60195
G1 X122.732 Y61.107 E4.6576
G1 X123.361 Y61.094 E4.6869
G1 X144.707 Y61.095 E5.68086
G1 X145.404 Y61.105 E5.71331
G1 X146.479 Y61.173 E5.76347
G1 X149.135 Y61.473 E5.88793
G1 X151.678 Y61.688 E6.00677
G1 X154.139 Y61.828 E6.12155
G1 X156.689 Y61.899 E6.24033
G1 X159.213 Y61.899 E6.35786
G1 X161.708 Y61.827 E6.47408
G1 X164.225 Y61.685 E6.59147
G1 X166.776 Y61.468 E6.71069
G1 X169.412 Y61.175 E6.83419
G1 X170.357 Y61.107 E6.8783
G1 X170.986 Y61.094 E6.9076
G1 X192.332 Y61.095 E7.90156
G1 X193.03 Y61.105 E7.93406
G1 X193.966 Y61.159 E7.97772
G1 X194.894 Y61.291 E8.02137
G1 X195.808 Y61.503 E8.06506
G1 X196.7 Y61.792 E8.10872
G1 X197.565 Y62.155 E8.1524
G1 X198.395 Y62.591 E8.19605
G1 X199.186 Y63.096 E8.23975
G1 X199.93 Y63.667 E8.28342
G1 X200.623 Y64.299 E8.3271
G1 X201.26 Y64.987 E8.37075
G1 X201.835 Y65.728 E8.41443
G1 X202.346 Y66.514 E8.45808
G1 X202.788 Y67.342 E8.50179
G1 X203.157 Y68.204 E8.54545
G1 X203.452 Y69.094 E8.58911
G1 X203.67 Y70.006 E8.63277
G1 X203.81 Y70.934 E8.67647
G1 X203.871 Y71.939 E8.72335
G1 X203.918 Y75.057 E8.86856
G1 X204.025 Y77.579 E8.9861
G1 X204.202 Y80.073 E9.10252
G1 X204.45 Y82.571 E9.21941
G1 X204.768 Y85.06 E9.33625
G1 X205.162 Y87.569 E9.45451
G1 X205.626 Y90.064 E9.57268
G1 X206.144 Y92.476 E9.68756
G1 X206.731 Y94.879 E9.80274
G1 X206.915 Y95.799 E9.84643
G1 X207.041 Y97.161 E9.91012
G1 X207.056 Y97.824 E9.941
G1 X207.055 Y122.358 E11.0834
G1 X207.044 Y123.065 E11.11633
G1 X206.989 Y124.001 E11.15999
G1 X206.855 Y124.93 E11.20369
G1 X206.728 Y125.514 E11.23152
G1 X206.465 Y126.586 E11.28292
G1 X205.885 Y129.106 E11.40333
G1 X205.382 Y131.61 E11.52226
G1 X204.959 Y134.076 E11.63876
G1 X204.603 Y136.579 E11.75648
G1 X204.321 Y139.051 E11.87234
G1 X204.104 Y141.586 E11.99081
G1 X203.963 Y144.089 E12.10754
G1 X203.889 Y146.653 E12.22698
G1 X203.869 Y148.41 E12.3088
G1 X203.819 Y149.347 E12.3525
G1 X203.688 Y150.276 E12.39618
G1 X203.479 Y151.19 E12.43984
G1 X203.193 Y152.083 E12.4835
G1 X202.832 Y152.949 E12.52719
G1 X202.399 Y153.781 E12.57086
G1 X201.896 Y154.572 E12.61451
G1 X201.328 Y155.318 E12.65817
G1 X200.698 Y156.013 E12.70185
G1 X200.011 Y156.652 E12.74554
G1 X199.272 Y157.23 E12.78923
G1 X198.487 Y157.743 E12.83289
G1 X197.661 Y158.187 E12.87656
G1 X196.8 Y158.559 E12.92023
G1 X195.911 Y158.856 E12.96388
G1 X194.999 Y159.077 E13.00757
G1 X194.072 Y159.219 E13.05124
G1 X193.18 Y159.281 E13.09288
G1 X192.551 Y159.294 E13.12217
G1 X171.205 Y159.293 E14.11613
G1 X170.508 Y159.283 E14.14859
G1 X169.433 Y159.215 E14.19875
G1 X166.777 Y158.915 E14.32321
G1 X164.234 Y158.7 E14.44204
G1 X161.773 Y158.56 E14.55682
G1 X159.223 Y158.489 E14.67561
G1 X156.699 Y158.489 E14.79313
G1 X154.204 Y158.561 E14.90936
G1 X151.687 Y158.703 E15.02675
G1 X149.136 Y158.92 E15.14596
G1 X146.5 Y159.213 E15.26946
G1 X145.555 Y159.281 E15.31358
G1 X144.926 Y159.294 E15.34287
G1 X123.581 Y159.293 E16.33679
G1 X122.881 Y159.283 E16.36938
G1 X121.945 Y159.23 E16.41304
G1 X121.016 Y159.097 E16.45674
G1 X120.43 Y158.97 E16.48466
G1 X119.4 Y158.719 E16.53402
G1 X116.881 Y158.137 E16.65441
G1 X114.371 Y157.634 E16.77361
G1 X111.93 Y157.214 E16.88894
G1 X109.416 Y156.856 E17.00718
G1 X106.936 Y156.574 E17.12341
G1 X104.412 Y156.358 E17.24137
G1 X101.893 Y156.214 E17.35885
G1 X99.408 Y156.143 E17.47461
G1 X96.884 Y156.143 E17.59214
G1 X94.36 Y156.214 E17.70971
G1 X91.838 Y156.356 E17.82733
G1 X89.315 Y156.569 E17.94523
G1 X86.857 Y156.848 E18.06042
G1 X84.31 Y157.21 E18.18021
G1 X81.874 Y157.626 E18.29529
G1 X79.36 Y158.13 E18.41468
G1 X77.155 Y158.627 E18.51993
G1 X76.232 Y158.795 E18.56361
G1 X75.043 Y158.893 E18.61917
G1 X74.414 Y158.906 E18.64846
G1 X49.894 Y158.905 E19.79022
G1 X49.194 Y158.895 E19.82281
G1 X48.258 Y158.842 E19.86647
G1 X47.329 Y158.709 E19.91017
G1 X46.745 Y158.583 E19.93799
G1 X45.445 Y158.266 E20.00029
G1 X42.928 Y157.686 E20.12057
G1 X40.461 Y157.19 E20.23774
G1 X37.977 Y156.764 E20.35509
G1 X35.469 Y156.407 E20.47305
G1 X32.989 Y156.124 E20.58928
G1 X30.474 Y155.91 E20.70681
G1 X27.9 Y155.764 E20.82686
G1 X26.658 Y155.711 E20.88475
G1 X25.724 Y155.631 E20.9284
G1 X24.799 Y155.472 E20.9721
G1 X23.892 Y155.234 E21.01577
G1 X23.008 Y154.92 E21.05945
G1 X22.154 Y154.532 E21.10313
G1 X21.337 Y154.073 E21.14676
G1 X20.561 Y153.546 E21.19044
G1 X19.833 Y152.954 E21.23413
G1 X19.158 Y152.303 E21.2778
G1 X18.542 Y151.596 E21.32146
G1 X17.987 Y150.84 E21.36513
G1 X17.499 Y150.039 E21.40881
G1 X17.081 Y149.2 E21.45245
G1 X16.736 Y148.327 E21.49616
G1 X16.467 Y147.429 E21.53982
G1 X16.275 Y146.511 E21.58349
G1 X16.138 Y145.196 E21.64505
G1 X16.024 Y142.562 E21.76781
G1 X15.841 Y140.023 E21.88635
G1 X15.594 Y137.551 E22.00203
G1 X15.268 Y135.024 E22.12067
G1 X14.879 Y132.556 E22.23701
G1 X14.42 Y130.101 E22.35331
G1 X13.888 Y127.636 E22.47073
G1 X13.273 Y125.137 E22.59056
G1 X13.088 Y124.218 E22.63422
G1 X12.959 Y122.839 E22.69871
G1 X12.944 Y122.176 E22.72959
G1 X12.945 Y97.642 E23.87199
G1 X12.956 Y96.936 E23.90487
G1 X13.011 Y95.999 E23.94858
G1 X13.145 Y95.071 E23.99224
G1 X13.27 Y94.492 E24.01982
G1 X13.589 Y93.189 E24.08228
G1 X14.161 Y90.704 E24.20102
G1 X14.662 Y88.211 E24.31943
G1 X15.086 Y85.739 E24.43621
G1 X15.443 Y83.231 E24.55418
G1 X15.726 Y80.751 E24.6704
G1 X15.94 Y78.235 E24.78798
G1 X16.086 Y75.663 E24.90794
G1 X16.139 Y74.42 E24.96587
G1 X16.219 Y73.486 E25.00952
G1 X16.378 Y72.562 E25.05318
G1 X16.616 Y71.654 E25.09689
G1 X16.929 Y70.771 E25.14051
G1 X17.317 Y69.917 E25.18419
G1 X17.777 Y69.099 E25.22789
G1 X18.304 Y68.323 E25.27156
G1 X18.896 Y67.595 E25.31526
G1 X19.547 Y66.921 E25.35889
G1 X20.253 Y66.304 E25.40255
G1 X21.01 Y65.749 E25.44626
G1 X21.811 Y65.261 E25.48993
G1 X22.65 Y64.843 E25.53358
G1 X23.522 Y64.498 E25.57725
G0 F6000 X23.878 Y64.801
G1 F1200 X24.765 Y64.557 E25.62008
G1 X25.671 Y64.391 E25.66297
G1 X26.671 Y64.3 E25.70973
G1 X29.3 Y64.186 E25.83226
G1 X31.855 Y64.002 E25.95154
G1 X34.36 Y63.751 E26.06877
G1 X36.864 Y63.429 E26.18632
G1 X39.358 Y63.036 E26.30389
G1 X41.849 Y62.57 E26.42189
G1 X44.295 Y62.04 E26.53843
G1 X46.832 Y61.419 E26.66005
G1 X47.734 Y61.239 E26.70288
G1 X49.056 Y61.119 E26.76469
G1 X49.674 Y61.106 E26.79348
G1 X74.037 Y61.106 E27.92792
G1 X74.892 Y61.117 E27.96773
G1 X75.811 Y61.17 E28.0106
G1 X76.722 Y61.303 E28.05347
G1 X77.268 Y61.422 E28.07949
G1 X78.293 Y61.674 E28.12864
G1 X80.815 Y62.255 E28.24915
G1 X83.321 Y62.757 E28.36816
G1 X85.817 Y63.185 E28.48608
G1 X88.303 Y63.54 E28.60301
G1 X90.837 Y63.828 E28.72176
G1 X93.322 Y64.041 E28.8379
G1 X95.849 Y64.184 E28.95576
G1 X98.401 Y64.257 E29.07464
G1 X100.913 Y64.257 E29.19161
G1 X103.46 Y64.186 E29.31025
G1 X105.965 Y64.045 E29.42708
G1 X108.498 Y63.83 E29.54545
G1 X110.972 Y63.549 E29.66139
G1 X113.527 Y63.186 E29.78156
G1 X116.004 Y62.762 E29.89857
G1 X118.47 Y62.268 E30.01568
G1 X120.706 Y61.763 E30.12242
G1 X121.612 Y61.6 E30.16529
G1 X122.743 Y61.507 E30.21813
G1 X123.361 Y61.494 E30.24691
G1 X144.701 Y61.495 E31.24059
G1 X145.398 Y61.505 E31.27305
G1 X146.434 Y61.571 E31.32139
G1 X149.093 Y61.871 E31.44599
G1 X151.62 Y62.085 E31.56408
G1 X154.141 Y62.228 E31.68165
G1 X156.678 Y62.299 E31.79983
G1 X159.189 Y62.299 E31.91676
G1 X161.741 Y62.226 E32.03564
G1 X164.244 Y62.084 E32.15237
G1 X166.812 Y61.865 E32.27238
G1 X168.14 Y61.723 E32.33457
G1 X169.457 Y61.572 E32.3963
G1 X170.368 Y61.507 E32.43883
G1 X170.986 Y61.494 E32.46761
G1 X192.326 Y61.495 E33.46129
G1 X193.024 Y61.505 E33.4938
G1 X193.943 Y61.558 E33.53666
G1 X194.854 Y61.691 E33.57953
G1 X195.75 Y61.902 E33.62239
G1 X196.624 Y62.19 E33.66524
G1 X197.471 Y62.553 E33.70815
G1 X198.282 Y62.988 E33.75101
G1 X199.052 Y63.492 E33.79386
G1 X199.776 Y64.061 E33.83674
G1 X200.448 Y64.691 E33.87963
G1 X201.063 Y65.376 E33.92249
G1 X201.616 Y66.112 E33.96536
G1 X202.103 Y66.893 E34.00822
G1 X202.52 Y67.714 E34.05109
G1 X202.865 Y68.568 E34.09398
G1 X203.134 Y69.448 E34.13683
G1 X203.326 Y70.349 E34.17973
G1 X203.439 Y71.262 E34.22257
G1 X203.471 Y71.945 E34.2544
G1 X203.518 Y75.08 E34.4004
G1 X203.625 Y77.588 E34.51729
G1 X203.803 Y80.104 E34.63474
G1 X204.053 Y82.628 E34.75284
G1 X204.374 Y85.136 E34.87057
G1 X204.761 Y87.598 E34.98662
G1 X205.235 Y90.149 E35.10744
G1 X205.75 Y92.55 E35.22179
G1 X206.343 Y94.974 E35.33799
G1 X206.522 Y95.877 E35.38085
G1 X206.641 Y97.173 E35.44145
G1 X206.656 Y97.824 E35.47177
G1 X206.655 Y122.352 E36.6139
G1 X206.644 Y123.059 E36.64682
G1 X206.589 Y123.978 E36.68969
G1 X206.456 Y124.889 E36.73256
G1 X206.34 Y125.419 E36.75783
G1 X206.08 Y126.481 E36.80874
G1 X205.49 Y129.042 E36.93111
G1 X204.984 Y131.563 E37.05084
G1 X204.567 Y133.995 E37.16574
G1 X204.208 Y136.509 E37.28399
G1 X203.92 Y139.044 E37.40279
G1 X203.707 Y141.529 E37.51892
G1 X203.564 Y144.056 E37.63678
G1 X203.489 Y146.695 E37.75971
G1 X203.469 Y148.406 E37.83939
G1 X203.419 Y149.325 E37.88225
G1 X203.289 Y150.237 E37.92514
G1 X203.08 Y151.133 E37.96798
G1 X202.794 Y152.009 E38.01089
G1 X202.434 Y152.856 E38.05375
G1 X202.001 Y153.668 E38.0966
G1 X201.5 Y154.44 E38.13945
G1 X200.933 Y155.166 E38.18234
G1 X200.306 Y155.84 E38.22521
G1 X199.622 Y156.456 E38.26807
G1 X198.888 Y157.011 E38.31092
G1 X198.108 Y157.501 E38.35381
G1 X197.288 Y157.92 E38.39669
G1 X196.435 Y158.267 E38.43957
G1 X195.556 Y158.539 E38.48242
G1 X194.656 Y158.733 E38.52529
G1 X193.743 Y158.849 E38.56814
G1 X193.169 Y158.881 E38.59491
G1 X192.551 Y158.894 E38.62369
G1 X171.211 Y158.893 E39.61737
G1 X170.514 Y158.883 E39.64983
G1 X169.478 Y158.817 E39.69817
G1 X166.819 Y158.517 E39.82277
G1 X164.292 Y158.303 E39.94086
G1 X161.771 Y158.16 E40.05843
G1 X159.234 Y158.089 E40.17661
G1 X156.723 Y158.089 E40.29354
G1 X154.171 Y158.162 E40.41242
G1 X151.668 Y158.304 E40.52916
G1 X149.1 Y158.523 E40.64917
G1 X147.772 Y158.665 E40.71136
G1 X146.455 Y158.816 E40.77308
G1 X145.544 Y158.881 E40.81561
G1 X144.926 Y158.894 E40.84439
G1 X123.587 Y158.893 E41.83803
G1 X122.887 Y158.883 E41.87063
G1 X121.967 Y158.83 E41.91354
G1 X121.056 Y158.697 E41.9564
G1 X120.525 Y158.582 E41.9817
G1 X119.524 Y158.338 E42.02968
G1 X116.937 Y157.741 E42.15331
G1 X114.452 Y157.242 E42.27133
G1 X111.977 Y156.817 E42.38826
G1 X109.482 Y156.461 E42.50562
G1 X106.948 Y156.173 E42.62437
G1 X104.468 Y155.961 E42.74027
G1 X101.928 Y155.816 E42.85874
G1 X99.384 Y155.743 E42.97724
G1 X96.873 Y155.743 E43.09417
G1 X94.325 Y155.814 E43.21286
G1 X91.818 Y155.955 E43.32978
G1 X89.307 Y156.168 E43.44712
G1 X86.792 Y156.453 E43.56498
G1 X84.258 Y156.813 E43.68416
G1 X81.793 Y157.235 E43.80061
G1 X79.28 Y157.738 E43.91995
G1 X77.067 Y158.237 E44.02558
G1 X76.161 Y158.401 E44.06845
G1 X75.032 Y158.493 E44.1212
G1 X74.414 Y158.506 E44.14998
G1 X49.9 Y158.505 E45.29145
G1 X49.2 Y158.495 E45.32405
G1 X48.28 Y158.442 E45.36696
G1 X47.369 Y158.309 E45.40983
G1 X46.839 Y158.194 E45.43509
G1 X45.534 Y157.876 E45.49763
G1 X43.025 Y157.298 E45.61752
G1 X40.542 Y156.798 E45.73546
G1 X38.029 Y156.367 E45.85418
G1 X35.534 Y156.012 E45.97153
G1 X33.032 Y155.727 E46.08879
G1 X30.496 Y155.511 E46.2073
G1 X27.865 Y155.362 E46.33001
G1 X26.675 Y155.311 E46.38547
G1 X25.758 Y155.232 E46.42833
G1 X24.851 Y155.074 E46.4712
G1 X23.961 Y154.837 E46.51409
G1 X23.095 Y154.524 E46.55696
G1 X22.26 Y154.137 E46.59982
G1 X21.461 Y153.679 E46.6427
G1 X20.705 Y153.154 E46.68556
G1 X19.998 Y152.565 E46.72841
G1 X19.344 Y151.916 E46.77131
G1 X18.749 Y151.214 E46.81416
G1 X18.217 Y150.462 E46.85705
G1 X17.753 Y149.667 E46.89992
G1 X17.359 Y148.835 E46.94278
G1 X17.039 Y147.972 E46.98564
G1 X16.795 Y147.084 E47.02852
G1 X16.629 Y146.179 E47.07137
G1 X16.538 Y145.179 E47.11812
G1 X16.424 Y142.549 E47.2407
G1 X16.24 Y139.993 E47.36003
G1 X15.99 Y137.493 E47.47702
G1 X15.667 Y134.982 E47.5949
G1 X15.274 Y132.492 E47.71228
G1 X14.81 Y130.015 E47.82963
G1 X14.281 Y127.562 E47.94648
G1 X13.661 Y125.042 E48.06732
G1 X13.48 Y124.139 E48.1102
G1 X13.359 Y122.827 E48.17155
G1 X13.344 Y122.176 E48.20187
G1 X13.345 Y97.648 E49.344
G1 X13.356 Y96.942 E49.37688
G1 X13.411 Y96.023 E49.41975
G1 X13.544 Y95.112 E49.46262
G1 X13.659 Y94.587 E49.48764
G1 X13.975 Y93.295 E49.54958
G1 X14.558 Y90.767 E49.67038
G1 X15.048 Y88.326 E49.78631
G1 X15.483 Y85.791 E49.90608
G1 X15.838 Y83.296 E50.02343
G1 X16.123 Y80.794 E50.14068
G1 X16.339 Y78.258 E50.2592
G1 X16.488 Y75.629 E50.38181
G1 X16.539 Y74.437 E50.43737
G1 X16.618 Y73.52 E50.48022
G1 X16.776 Y72.613 E50.52309
G1 X17.013 Y71.724 E50.56594
G1 X17.326 Y70.858 E50.60881
G1 X17.713 Y70.022 E50.65171
G1 X18.171 Y69.224 E50.69455
G1 X18.696 Y68.468 E50.73741
G1 X19.285 Y67.76 E50.7803
G1 X19.933 Y67.106 E50.82316
G1 X20.636 Y66.511 E50.86605
G1 X21.388 Y65.98 E50.90892
G1 X22.182 Y65.515 E50.95176
G1 X23.015 Y65.121 E50.99467
G1 X23.878 Y64.801 E51.03753
G0 F6000 X24.231 Y65.11
G1 F1200 X25.107 Y64.892 E51.07956
G1 X25.999 Y64.753 E51.1216
G1 X26.688 Y64.7 E51.15378
G1 X29.313 Y64.586 E51.27612
G1 X31.888 Y64.401 E51.39633
G1 X34.38 Y64.151 E51.51296
G1 X36.945 Y63.821 E51.63338
G1 X39.422 Y63.43 E51.75014
G1 X41.902 Y62.967 E51.86762
G1 X44.431 Y62.42 E51.9881
G1 X46.927 Y61.808 E52.10777
G1 X47.813 Y61.632 E52.14983
G1 X49.067 Y61.519 E52.20846
G1 X49.674 Y61.506 E52.23673
G1 X74.182 Y61.507 E53.37793
G1 X74.886 Y61.517 E53.41071
G1 X75.787 Y61.57 E53.45274
G1 X76.681 Y61.702 E53.49482
G1 X77.172 Y61.81 E53.51823
G1 X78.171 Y62.055 E53.56612
G1 X80.745 Y62.648 E53.68912
G1 X83.287 Y63.158 E53.80984
G1 X85.724 Y63.576 E53.92498
G1 X88.273 Y63.939 E54.04487
G1 X90.759 Y64.222 E54.16137
G1 X93.301 Y64.44 E54.28017
G1 X95.85 Y64.584 E54.39906
G1 X98.389 Y64.657 E54.51733
G1 X100.924 Y64.657 E54.63537
G1 X103.459 Y64.586 E54.75346
G1 X105.986 Y64.444 E54.87131
G1 X108.54 Y64.227 E54.99066
G1 X111.076 Y63.939 E55.10951
G1 X113.546 Y63.588 E55.22568
G1 X116.072 Y63.156 E55.34501
G1 X118.558 Y62.658 E55.46307
G1 X120.794 Y62.153 E55.56981
G1 X121.683 Y61.994 E55.61186
G1 X122.754 Y61.907 E55.66189
G1 X123.361 Y61.894 E55.69016
G1 X144.695 Y61.895 E56.68356
G1 X145.392 Y61.905 E56.71602
G1 X146.389 Y61.968 E56.76254
G1 X149.05 Y62.268 E56.88723
