;FLAVOR:Marlin
;TIME:3706
;Filament used: 3.1554m
;Layer height: 0.28
;MINX:90.412
;MINY:85.028
;MINZ:0.28
;MAXX:126.547
;MAXY:129.128
;MAXZ:41.72
;Generated with Cura_SteamEngine 5.2.1
M82 ;absolute extrusion mode
; Ender 3 Custom Start G-code
G92 E0 ; Reset Extruder
G28 ; Home all axes
M104 S175 ; Start heating up the nozzle most of the way
M190 S60 ; Start heating the bed, wait until target temperature reached
M109 S200 ; Finish heating the nozzle
G1 Z2.0 F3000 ; Move Z Axis up little to prevent scratching of Heat Bed
G1 X0.1 Y20 Z0.3 F5000.0 ; Move to start position
G1 X0.1 Y200.0 Z0.3 F1500.0 E15 ; Draw the first line
G1 X0.4 Y200.0 Z0.3 F5000.0 ; Move to side a little
G1 X0.4 Y20 Z0.3 F1500.0 E30 ; Draw the second line
G92 E0 ; Reset Extruder
G1 Z2.0 F3000 ; Move Z Axis up little to prevent scratching of Heat Bed
G1 X5 Y20 Z0.3 F5000.0 ; Move over to prevent blob squish
G92 E0
G92 E0
G1 F1500 E-6.5
;LAYER_COUNT:149
;LAYER:0
M107
G0 F6000 X92.827 Y87.75 Z0.28
;TYPE:SKIRT
G1 F1500 E0
G1 F1200 X93.37 Y87.177 E0.03676
G1 X93.969 Y86.662 E0.07354
G1 X94.617 Y86.211 E0.1103
G1 X95.308 Y85.827 E0.14711
G1 X96.033 Y85.515 E0.18387
G1 X96.786 Y85.278 E0.22063
G1 X97.56 Y85.119 E0.25742
G1 X98.345 Y85.038 E0.29417
G1 X98.747 Y85.028 E0.31289
G1 X106.747 Y85.028 E0.6854
G1 X107.536 Y85.068 E0.72219
G1 X108.316 Y85.187 E0.75893
G1 X108.72 Y85.292 E0.77837
G1 X109.56 Y85.119 E0.8183
G1 X110.345 Y85.038 E0.85505
G1 X110.747 Y85.028 E0.87377
G1 X118.747 Y85.028 E1.24629
G1 X119.536 Y85.068 E1.28307
G1 X120.316 Y85.187 E1.31981
G1 X121.081 Y85.385 E1.35661
G1 X121.821 Y85.659 E1.39335
G1 X122.53 Y86.007 E1.43013
G1 X123.201 Y86.425 E1.46694
G1 X123.825 Y86.908 E1.50368
G1 X124.398 Y87.451 E1.54044
G1 X124.913 Y88.05 E1.57723
G1 X125.364 Y88.698 E1.61399
G1 X125.748 Y89.389 E1.6508
G1 X126.06 Y90.114 E1.68755
G1 X126.297 Y90.867 E1.72431
G1 X126.456 Y91.641 E1.7611
G1 X126.537 Y92.426 E1.79785
G1 X126.547 Y92.828 E1.81657
G1 X126.547 Y101.828 E2.23565
G1 X126.507 Y102.617 E2.27244
G1 X126.396 Y103.347 E2.30682
G1 X126.456 Y103.641 E2.32079
G1 X126.537 Y104.426 E2.35754
G1 X126.547 Y104.828 E2.37626
G1 X126.547 Y113.828 E2.79534
G1 X126.507 Y114.617 E2.83213
G1 X126.388 Y115.397 E2.86887
G1 X126.19 Y116.162 E2.90566
G1 X125.916 Y116.902 E2.94241
G1 X125.568 Y117.611 E2.97918
G1 X125.15 Y118.282 E3.016
G1 X124.667 Y118.906 E3.05274
G1 X124.124 Y119.479 E3.0895
G1 X123.525 Y119.994 E3.12628
G1 X122.877 Y120.445 E3.16304
G1 X122.186 Y120.829 E3.19985
G1 X121.461 Y121.141 E3.23661
G1 X120.708 Y121.378 E3.27336
G1 X119.934 Y121.537 E3.31016
G1 X119.032 Y121.63 E3.35238
G1 X119.007 Y122.117 E3.37509
G1 X118.888 Y122.897 E3.41183
G1 X118.69 Y123.662 E3.44862
G1 X118.416 Y124.402 E3.48537
G1 X118.068 Y125.111 E3.52214
G1 X117.65 Y125.782 E3.55896
G1 X117.167 Y126.406 E3.5957
G1 X116.624 Y126.979 E3.63246
G1 X116.025 Y127.494 E3.66924
G1 X115.377 Y127.945 E3.706
G1 X114.686 Y128.329 E3.74281
G1 X113.961 Y128.641 E3.77957
G1 X113.208 Y128.878 E3.81632
G1 X112.434 Y129.037 E3.85312
G1 X111.649 Y129.118 E3.88986
G1 X111.247 Y129.128 E3.90859
G1 X101.572 Y129.128 E4.3591
G1 X100.783 Y129.088 E4.39588
G1 X100.003 Y128.969 E4.43262
G1 X99.238 Y128.771 E4.46942
G1 X98.498 Y128.497 E4.50616
G1 X97.789 Y128.149 E4.54294
G1 X97.118 Y127.731 E4.57975
G1 X96.494 Y127.248 E4.61649
G1 X95.921 Y126.705 E4.65325
G1 X95.406 Y126.106 E4.69004
G1 X94.955 Y125.458 E4.7268
G1 X94.571 Y124.767 E4.76361
G1 X94.259 Y124.042 E4.80036
G1 X94.022 Y123.289 E4.83712
G1 X93.863 Y122.515 E4.87391
G1 X93.782 Y121.73 E4.91066
G1 X93.772 Y121.33 E4.92929
G1 X93.772 Y119.846 E4.99839
G1 X93.096 Y119.205 E5.04177
G1 X92.581 Y118.606 E5.07856
G1 X92.13 Y117.958 E5.11532
G1 X91.746 Y117.267 E5.15213
G1 X91.434 Y116.542 E5.18888
G1 X91.197 Y115.789 E5.22564
G1 X91.038 Y115.015 E5.26243
G1 X90.957 Y114.23 E5.29918
G1 X90.947 Y113.828 E5.3179
G1 X90.947 Y104.828 E5.73698
G1 X90.987 Y104.039 E5.77377
G1 X91.098 Y103.309 E5.80815
G1 X91.038 Y103.015 E5.82212
G1 X90.957 Y102.23 E5.85887
G1 X90.947 Y101.828 E5.87759
G1 X90.947 Y92.828 E6.29667
G1 X90.987 Y92.039 E6.33346
G1 X91.106 Y91.259 E6.3702
G1 X91.304 Y90.494 E6.40699
G1 X91.578 Y89.754 E6.44374
G1 X91.926 Y89.045 E6.48051
G1 X92.344 Y88.374 E6.51733
G1 X92.827 Y87.75 E6.55407
G0 F6000 X93.222 Y87.905
G1 F1200 X93.763 Y87.358 E6.58989
G1 X94.358 Y86.87 E6.62572
G1 X95 Y86.447 E6.66152
G1 X95.683 Y86.092 E6.69737
G1 X96.398 Y85.811 E6.73314
G1 X97.14 Y85.605 E6.769
G1 X97.898 Y85.477 E6.80479
G1 X98.747 Y85.428 E6.84439
G1 X106.747 Y85.428 E7.2169
G1 X107.515 Y85.468 E7.25271
G1 X108.275 Y85.587 E7.28853
G1 X108.749 Y85.713 E7.31137
G1 X109.14 Y85.605 E7.33026
G1 X109.898 Y85.477 E7.36606
G1 X110.747 Y85.428 E7.40565
G1 X118.747 Y85.428 E7.77817
G1 X119.515 Y85.468 E7.81398
G1 X120.275 Y85.587 E7.8498
G1 X121.018 Y85.785 E7.8856
G1 X121.737 Y86.059 E7.92143
G1 X122.423 Y86.406 E7.95723
G1 X123.07 Y86.822 E7.99304
G1 X123.67 Y87.303 E8.02885
G1 X124.217 Y87.844 E8.06468
G1 X124.705 Y88.439 E8.10051
G1 X125.128 Y89.081 E8.13631
G1 X125.483 Y89.764 E8.17215
G1 X125.764 Y90.479 E8.20792
G1 X125.97 Y91.221 E8.24378
G1 X126.098 Y91.979 E8.27958
G1 X126.147 Y92.828 E8.31918
G1 X126.147 Y101.828 E8.73825
G1 X126.107 Y102.596 E8.77406
G1 X125.99 Y103.341 E8.80918
G1 X126.098 Y103.979 E8.83931
G1 X126.147 Y104.828 E8.87891
G1 X126.147 Y113.828 E9.29799
G1 X126.107 Y114.596 E9.3338
G1 X125.988 Y115.356 E9.36962
G1 X125.79 Y116.099 E9.40542
G1 X125.516 Y116.818 E9.44125
G1 X125.169 Y117.504 E9.47705
G1 X124.753 Y118.151 E9.51286
G1 X124.272 Y118.751 E9.54867
G1 X123.731 Y119.298 E9.58449
G1 X123.136 Y119.786 E9.62033
G1 X122.494 Y120.209 E9.65613
G1 X121.811 Y120.564 E9.69197
G1 X121.096 Y120.845 E9.72774
G1 X120.354 Y121.051 E9.7636
G1 X119.596 Y121.179 E9.79939
G1 X118.647 Y121.234 E9.84366
G1 X118.607 Y122.096 E9.88384
G1 X118.488 Y122.856 E9.91966
G1 X118.29 Y123.599 E9.95546
G1 X118.016 Y124.318 E9.99129
G1 X117.669 Y125.004 E10.02709
G1 X117.253 Y125.651 E10.06291
G1 X116.772 Y126.251 E10.09871
G1 X116.231 Y126.798 E10.13454
G1 X115.636 Y127.286 E10.17037
G1 X114.994 Y127.709 E10.20617
G1 X114.311 Y128.064 E10.24201
G1 X113.596 Y128.345 E10.27778
G1 X112.854 Y128.551 E10.31364
G1 X112.096 Y128.679 E10.34944
G1 X111.247 Y128.728 E10.38904
G1 X101.572 Y128.728 E10.83954
G1 X100.804 Y128.688 E10.87535
G1 X100.044 Y128.569 E10.91117
G1 X99.301 Y128.371 E10.94698
G1 X98.582 Y128.097 E10.98281
G1 X97.896 Y127.75 E11.0186
G1 X97.249 Y127.334 E11.05442
G1 X96.649 Y126.853 E11.09023
G1 X96.102 Y126.312 E11.12605
G1 X95.614 Y125.717 E11.16189
G1 X95.191 Y125.075 E11.19769
G1 X94.836 Y124.392 E11.23353
G1 X94.555 Y123.677 E11.2693
G1 X94.349 Y122.935 E11.30516
G1 X94.221 Y122.177 E11.34095
G1 X94.172 Y121.329 E11.38051
G1 X94.172 Y119.632 E11.45953
G1 X93.824 Y119.353 E11.48029
G1 X93.277 Y118.812 E11.51612
G1 X92.789 Y118.217 E11.55195
G1 X92.366 Y117.575 E11.58775
G1 X92.011 Y116.892 E11.62359
G1 X91.73 Y116.177 E11.65937
G1 X91.524 Y115.435 E11.69522
G1 X91.396 Y114.677 E11.73102
G1 X91.347 Y113.828 E11.77062
G1 X91.347 Y104.828 E12.18969
G1 X91.387 Y104.06 E12.2255
G1 X91.504 Y103.315 E12.26062
G1 X91.396 Y102.677 E12.29075
G1 X91.347 Y101.828 E12.33035
G1 X91.347 Y92.828 E12.74943
G1 X91.387 Y92.06 E12.78524
G1 X91.506 Y91.3 E12.82106
G1 X91.704 Y90.557 E12.85686
G1 X91.978 Y89.838 E12.89269
G1 X92.325 Y89.152 E12.92849
G1 X92.741 Y88.505 E12.9643
G1 X93.222 Y87.905 E13.00011
G0 F6000 X93.618 Y88.065
G1 F1200 X94.155 Y87.544 E13.03495
G1 X94.745 Y87.085 E13.06976
G1 X95.381 Y86.69 E13.10462
G1 X96.055 Y86.366 E13.13944
G1 X96.76 Y86.116 E13.17427
G1 X97.488 Y85.942 E13.20913
G1 X98.23 Y85.847 E13.24396
G1 X98.747 Y85.828 E13.26805
G1 X106.747 Y85.828 E13.64056
G1 X107.494 Y85.868 E13.6754
G1 X108.232 Y85.987 E13.7102
G1 X108.735 Y86.125 E13.73449
G1 X109.488 Y85.942 E13.77057
G1 X110.23 Y85.847 E13.80541
G1 X110.747 Y85.828 E13.8295
G1 X118.747 Y85.828 E14.20201
G1 X119.494 Y85.868 E14.23684
G1 X120.232 Y85.987 E14.27165
G1 X120.954 Y86.185 E14.30651
G1 X121.65 Y86.458 E14.34133
G1 X122.313 Y86.805 E14.37617
G1 X122.936 Y87.22 E14.41103
G1 X123.51 Y87.699 E14.44584
G1 X124.031 Y88.236 E14.48068
G1 X124.49 Y88.826 E14.51549
G1 X124.885 Y89.462 E14.55035
G1 X125.209 Y90.136 E14.58517
G1 X125.459 Y90.841 E14.62
G1 X125.633 Y91.569 E14.65485
G1 X125.728 Y92.311 E14.68969
G1 X125.747 Y92.828 E14.71378
G1 X125.747 Y101.828 E15.13285
G1 X125.707 Y102.575 E15.16769
G1 X125.579 Y103.345 E15.20403
G1 X125.633 Y103.569 E15.21476
G1 X125.728 Y104.311 E15.2496
G1 X125.747 Y104.828 E15.27369
G1 X125.747 Y113.828 E15.69276
G1 X125.707 Y114.575 E15.7276
G1 X125.588 Y115.313 E15.7624
G1 X125.39 Y116.035 E15.79727
G1 X125.117 Y116.731 E15.83208
G1 X124.77 Y117.394 E15.86692
G1 X124.355 Y118.017 E15.90178
G1 X123.876 Y118.591 E15.93659
G1 X123.339 Y119.112 E15.97143
G1 X122.749 Y119.571 E16.00624
G1 X122.113 Y119.966 E16.0411
G1 X121.439 Y120.29 E16.07592
G1 X120.734 Y120.54 E16.11075
G1 X120.006 Y120.714 E16.14561
G1 X119.264 Y120.809 E16.18044
G1 X118.747 Y120.828 E16.20453
G1 X118.247 Y120.828 E16.22781
G1 X118.247 Y121.328 E16.25109
G1 X118.207 Y122.075 E16.28593
G1 X118.088 Y122.813 E16.32073
G1 X117.89 Y123.535 E16.3556
G1 X117.617 Y124.231 E16.39041
G1 X117.27 Y124.894 E16.42525
G1 X116.855 Y125.517 E16.46011
G1 X116.376 Y126.091 E16.49492
G1 X115.839 Y126.612 E16.52976
G1 X115.249 Y127.071 E16.56457
G1 X114.613 Y127.466 E16.59943
G1 X113.939 Y127.79 E16.63425
G1 X113.234 Y128.04 E16.66908
G1 X112.506 Y128.214 E16.70394
G1 X111.764 Y128.309 E16.73877
G1 X111.247 Y128.328 E16.76286
G1 X101.572 Y128.328 E17.21337
G1 X100.825 Y128.288 E17.2482
G1 X100.087 Y128.169 E17.28301
G1 X99.365 Y127.971 E17.31787
G1 X98.669 Y127.698 E17.35268
G1 X98.006 Y127.351 E17.38753
G1 X97.383 Y126.936 E17.42238
G1 X96.809 Y126.457 E17.45719
G1 X96.288 Y125.92 E17.49203
G1 X95.829 Y125.33 E17.52684
G1 X95.434 Y124.694 E17.5617
G1 X95.11 Y124.02 E17.59653
G1 X94.86 Y123.315 E17.63136
G1 X94.686 Y122.587 E17.66621
G1 X94.591 Y121.845 E17.70104
G1 X94.572 Y121.329 E17.72509
G1 X94.572 Y119.445 E17.81281
G1 X93.984 Y118.957 E17.84839
G1 X93.463 Y118.42 E17.88323
G1 X93.004 Y117.83 E17.91804
G1 X92.609 Y117.194 E17.9529
G1 X92.285 Y116.52 E17.98772
G1 X92.035 Y115.815 E18.02255
G1 X91.861 Y115.087 E18.05741
G1 X91.766 Y114.345 E18.09224
G1 X91.747 Y113.828 E18.11633
G1 X91.747 Y104.828 E18.53541
G1 X91.787 Y104.081 E18.57024
G1 X91.915 Y103.311 E18.60659
G1 X91.861 Y103.087 E18.61732
G1 X91.766 Y102.345 E18.65215
G1 X91.747 Y101.828 E18.67624
G1 X91.747 Y92.828 E19.09532
G1 X91.787 Y92.081 E19.13015
G1 X91.906 Y91.343 E19.16496
G1 X92.104 Y90.621 E19.19982
G1 X92.377 Y89.925 E19.23463
G1 X92.724 Y89.262 E19.26948
G1 X93.139 Y88.639 E19.30433
G1 X93.618 Y88.065 E19.33915
G0 F6000 X94.012 Y88.23
G1 F1200 X94.546 Y87.737 E19.37299
G1 X95.131 Y87.307 E19.40679
G1 X95.76 Y86.943 E19.44063
G1 X96.425 Y86.65 E19.47447
G1 X97.118 Y86.432 E19.5083
G1 X97.83 Y86.292 E19.54209
G1 X98.747 Y86.228 E19.58489
G1 X106.747 Y86.228 E19.95741
G1 X107.472 Y86.268 E19.99122
G1 X108.189 Y86.387 E20.02506
G1 X108.753 Y86.547 E20.05236
G1 X109.118 Y86.432 E20.07018
G1 X109.83 Y86.292 E20.10397
G1 X110.747 Y86.228 E20.14677
G1 X118.747 Y86.228 E20.51928
G1 X119.472 Y86.268 E20.55309
G1 X120.189 Y86.387 E20.58694
G1 X120.888 Y86.585 E20.62076
G1 X121.561 Y86.858 E20.65458
G1 X122.2 Y87.203 E20.6884
G1 X122.797 Y87.617 E20.72223
G1 X123.345 Y88.093 E20.75603
G1 X123.838 Y88.627 E20.78987
G1 X124.268 Y89.212 E20.82367
G1 X124.632 Y89.841 E20.85751
G1 X124.925 Y90.506 E20.89135
G1 X125.143 Y91.199 E20.92518
G1 X125.283 Y91.911 E20.95897
G1 X125.347 Y92.828 E21.00177
G1 X125.347 Y101.828 E21.42085
G1 X125.307 Y102.553 E21.45466
G1 X125.174 Y103.355 E21.49251
G1 X125.283 Y103.911 E21.5189
G1 X125.347 Y104.828 E21.5617
G1 X125.347 Y113.828 E21.98078
G1 X125.307 Y114.553 E22.01459
G1 X125.188 Y115.27 E22.04843
G1 X124.99 Y115.969 E22.08226
G1 X124.717 Y116.642 E22.11608
G1 X124.372 Y117.281 E22.14989
G1 X123.958 Y117.878 E22.18372
G1 X123.482 Y118.426 E22.21752
G1 X122.948 Y118.919 E22.25136
G1 X122.363 Y119.349 E22.28517
G1 X121.734 Y119.713 E22.31901
G1 X121.069 Y120.006 E22.35285
G1 X120.376 Y120.224 E22.38667
G1 X119.664 Y120.364 E22.42046
G1 X118.747 Y120.428 E22.46327
G1 X117.847 Y120.428 E22.50517
G1 X117.847 Y121.328 E22.54708
G1 X117.807 Y122.053 E22.58089
G1 X117.688 Y122.77 E22.61473
G1 X117.49 Y123.469 E22.64856
G1 X117.217 Y124.142 E22.68238
G1 X116.872 Y124.781 E22.7162
G1 X116.458 Y125.378 E22.75003
G1 X115.982 Y125.926 E22.78382
G1 X115.448 Y126.419 E22.81767
G1 X114.863 Y126.849 E22.85147
G1 X114.234 Y127.213 E22.88531
G1 X113.569 Y127.506 E22.91915
G1 X112.876 Y127.724 E22.95298
G1 X112.164 Y127.864 E22.98677
G1 X111.247 Y127.928 E23.02957
G1 X101.572 Y127.928 E23.48008
G1 X100.847 Y127.888 E23.51389
G1 X100.13 Y127.769 E23.54773
G1 X99.431 Y127.571 E23.58156
G1 X98.758 Y127.298 E23.61538
G1 X98.119 Y126.953 E23.64919
G1 X97.522 Y126.539 E23.68302
G1 X96.974 Y126.063 E23.71682
G1 X96.481 Y125.529 E23.75066
G1 X96.051 Y124.944 E23.78447
G1 X95.687 Y124.315 E23.81831
G1 X95.394 Y123.65 E23.85215
G1 X95.176 Y122.957 E23.88598
G1 X95.036 Y122.245 E23.91976
G1 X94.972 Y121.329 E23.96252
G1 X94.972 Y119.229 E24.06031
G1 X94.697 Y119.039 E24.07587
G1 X94.149 Y118.563 E24.10967
G1 X93.656 Y118.029 E24.14351
G1 X93.226 Y117.444 E24.17732
G1 X92.862 Y116.815 E24.21116
G1 X92.569 Y116.15 E24.245
G1 X92.351 Y115.457 E24.27882
G1 X92.211 Y114.745 E24.31261
G1 X92.147 Y113.828 E24.35542
G1 X92.147 Y104.828 E24.77449
G1 X92.187 Y104.103 E24.8083
G1 X92.32 Y103.301 E24.84616
G1 X92.211 Y102.745 E24.87254
G1 X92.147 Y101.828 E24.91534
G1 X92.147 Y92.828 E25.33442
G1 X92.187 Y92.103 E25.36823
G1 X92.306 Y91.386 E25.40207
G1 X92.504 Y90.687 E25.4359
G1 X92.777 Y90.014 E25.46972
G1 X93.122 Y89.375 E25.50354
G1 X93.536 Y88.778 E25.53737
G1 X94.012 Y88.23 E25.57116
G0 F6000 X94.406 Y88.401
G1 F1200 X94.936 Y87.937 E25.60396
G1 X95.515 Y87.537 E25.63673
G1 X96.136 Y87.205 E25.66952
G1 X96.79 Y86.945 E25.70229
G1 X97.47 Y86.761 E25.7351
G1 X98.166 Y86.655 E25.76788
G1 X98.747 Y86.628 E25.79496
G1 X106.747 Y86.628 E26.16748
G1 X107.45 Y86.668 E26.20026
G1 X108.144 Y86.787 E26.23305
G1 X108.734 Y86.96 E26.26168
G1 X109.47 Y86.761 E26.29718
G1 X110.166 Y86.655 E26.32996
G1 X110.747 Y86.628 E26.35705
G1 X118.747 Y86.628 E26.72956
G1 X119.45 Y86.668 E26.76235
G1 X120.144 Y86.787 E26.79514
G1 X120.819 Y86.985 E26.82789
G1 X121.468 Y87.257 E26.86066
G1 X122.082 Y87.602 E26.89345
G1 X122.653 Y88.013 E26.92621
G1 X123.174 Y88.487 E26.95901
G1 X123.638 Y89.017 E26.99181
G1 X124.038 Y89.596 E27.02458
G1 X124.37 Y90.217 E27.05737
G1 X124.63 Y90.871 E27.09014
G1 X124.814 Y91.551 E27.12294
G1 X124.92 Y92.247 E27.15572
G1 X124.947 Y92.828 E27.18281
G1 X124.947 Y101.828 E27.60188
G1 X124.907 Y102.531 E27.63467
G1 X124.788 Y103.225 E27.66746
G1 X124.756 Y103.335 E27.67279
G1 X124.814 Y103.551 E27.68321
G1 X124.92 Y104.247 E27.71599
G1 X124.947 Y104.828 E27.74307
G1 X124.947 Y113.828 E28.16215
G1 X124.907 Y114.531 E28.19494
G1 X124.788 Y115.225 E28.22773
G1 X124.59 Y115.9 E28.26048
G1 X124.318 Y116.549 E28.29325
G1 X123.973 Y117.163 E28.32604
G1 X123.562 Y117.734 E28.3588
G1 X123.088 Y118.255 E28.3916
G1 X122.558 Y118.719 E28.4244
G1 X121.979 Y119.119 E28.45717
G1 X121.358 Y119.451 E28.48996
G1 X120.704 Y119.711 E28.52273
G1 X120.024 Y119.895 E28.55553
G1 X119.328 Y120.001 E28.58831
G1 X118.747 Y120.028 E28.6154
G1 X117.447 Y120.028 E28.67593
G1 X117.447 Y121.328 E28.73646
G1 X117.407 Y122.031 E28.76925
G1 X117.288 Y122.725 E28.80204
G1 X117.09 Y123.4 E28.83479
G1 X116.818 Y124.049 E28.86756
G1 X116.473 Y124.663 E28.90036
G1 X116.062 Y125.234 E28.93311
G1 X115.588 Y125.755 E28.96591
G1 X115.058 Y126.219 E28.99871
G1 X114.479 Y126.619 E29.03148
G1 X113.858 Y126.951 E29.06427
G1 X113.204 Y127.211 E29.09704
G1 X112.524 Y127.395 E29.12984
G1 X111.828 Y127.501 E29.16263
G1 X111.247 Y127.528 E29.18971
G1 X101.572 Y127.528 E29.64022
G1 X100.869 Y127.488 E29.67301
G1 X100.175 Y127.369 E29.70579
